X: 14372
T: Galtee Hunt, The
R: hornpipe
M: 4/4
K: Gmajor
GABG AGED|c2cA BGED|~G2GB AGED|EAAG AB (3cBA|
G2BG AGED|cBcd ef (3gfe|dBGB AGED|EGGF G2zD:|
~G2GB d2d2|(3efg fd e2d2|e2d2 g2d2|edBc dBGB|
c2cB cegz|~B2BA Bcdz|~A2AB AGED|~g2gb ag (3gfe|
dBGB AGED|cBcd ef (3gfe|dBGB AGED|EGGF G2zD:|

